!!!OTL: Abschiedsstunde.
!!!ARE: Europa, Mitteleuropa, Deutschland
!!!SCT: A0269A
!!!TXL: @@GMH
!!!YEM: Copyright 1995, estate of Helmut Schaffrath.
**kern	**text
!! Mixed meters:  4/2; 6/2
*M4/2	*
*met(c|)	*
*clefC3	*
*k[b-]	*
*d:phr	*
=1	=1
!LO:TX:a:t=phrygisch. (d moll mit Quintſchl.)	!
1ryy	.
{1f	Jch
=2	=2
2d	ſtůnd
2e	an
2f	ei-
2g	-nem
=3	=3
*M6/2	*
1a	mor-
1a}	-gen
{1a	heim-
=4	=4
1g	-lich
2e	an
2f	ei-
1d	-nem
=5	=5
*M4/2	*
1c	ort,
2r}	.
{2f	da
=6	=6
2f	het
2a	ich
2g	mich
2f	ver-
=7	=7
*M6/2	*
1e	-bor-
1d}	-gen,
{1f	ich
=8	=8
1e	hört
2d	kleg-
*lig	*
2c	-li-
2d	.
*Xlig	*
2B-	-che
=9	=9
1A	wort
2r}	.
{2A	von
2A	ei-
2A	-nem
=10	=10
1d	freu-
2d	-lein
1c	hübſch
2A	vnd
=11	=11
*M4/2	*
1F}	fein,
{1f	das
=12	=12
2d	ſtůnd
2e	bei
2f	ſei-
2g	-nem
=13	=13
1.a}	bů-
{4g	.
4f	.
=14	=14
1e	-len:
1g	es
=15	=15
*M6/2	*
2f	můſt
1d	ge-
*lig	*
2c	-ſchie-
2d	.
*Xlig	*
2B-	-den
=16	=16
0./llA}	ſein!
==	==
!!!GTL: Abschieds- und Wanderlieder
!!!AGN: Romanze, Ballade, Lied
!! Joh. Ott 1534 No. 22 - 24.
!!!ONB: ESAC (Essen Associative Code) Database: ALTDEU
!!!AMT: irregular
!!!AIN: vox
!!!EED: Helmut Schaffrath
!!!EEV: 1.0
!!!RDF**kern: l = terminal long
!!!AMD: Phrygian
!!!URL-scan: https://rosdok.uni-rostock.de/mcrviewer/recordIdentifier/rosdok_ppn738218359/iview2/phys_0418.iview2?x=-495.6391625615763&y=1252.4251231628004&scale=0.4629418472063854&rotation=0&layout=singlePageLayout&logicalDiv=log_0011
!!!ENC: Anna Maria Matuszewska
!!!EEV: 2024/11/03
*-	*-
